X:306
T:Red-Haired Lass
Z: id:dc-reel-283
M:C
L:1/8
K:G Major
DGGF G2BG|DGBG AGEG|DGGF G2Bd|egdB cBAB|!
DGGF G2BG|DGBG AGEG|DGGF G2Bd|egdB c2Bc|]!
d2gd edgd|d2gd BGBc|d2gd edef|gedB c2Bc|!
d2gd edgd|d2gd BGAB|c3A B3A|GABd gdBG|]!

